X:366
T: Fang yang diao
N: C1401
O: China, Shaanxi Xixiang
S: I,]
R: Xiaodiao. Changgong fangyang shenghuo]
M: 2/4
L: 1/16
K: C
d6cc | dec2A4 | A2d2A2d2 | c2A2G4 |
c2A2c2d2 | c2d2cdA2 | G6FG | F3GAcA2 | G8

